!!!OTL: 228. Ange
!!!Genre:	Ange
!!!Mode:	Major
!!!Listening/dance:	dance
!!!One_Mode:	no
**kern
*thru
*I"P1
*clefG2
*k[f#]
*>A
*G:
*M2/4
=1
!LO:TX:a:i:t=G-major
(4.bt
8g)
=2
(4.bt
8g)
=3
(8.btL
16gJk)
(8.btL
16gJk)
=4
(8.btL
16gJk)
(8.btL
16gJk)
=5
16ddLL
16cc
16b
16aJJ
8bL
8gJ
=6
16ddLL
16cc
16b
16aJJ
8bL
8gJ
=7
(16ddLL
16cc)
16b
16aJJ
(16bLL
16cc)
16dd
16eeJJ
=8
(16ddLL
16cc)
16b
16aJJ
8btL
8gJ
*>B
=9!|:
!LO:TX:a:t="Segno"
8.dL
16gJk
8bL
8ddJ
=10
(8qdd/
8ccL)
8bJ
8aL
8bJ
=11
8.dL
16gJk
8bL
8ddJ
=12
8ccL
8aJ
!LO:TX:b:Bi:t=Fine
4g
*>B
=13:|!
!LO:TX:a:t="Segno"
8.dL
16gJk
8bL
8ddJ
=10
(8qdd/
8ccL)
8bJ
8aL
8bJ
=11
8.dL
16gJk
8bL
8ddJ
=12
8ccL
8aJ
!LO:TX:b:Bi:t=Fine
4g
*>C
!!!Begin-Modulation
*-
